logos/stenciljs.svg

<?xml version="1.0" encoding="UTF-8"?>
<svg width="512px" height="107px" viewBox="0 0 512 107" version="1.1" xmlns="http://www.w3.org/2000/svg" xmlns:xlink="http://www.w3.org/1999/xlink" preserveAspectRatio="xMidYMid">
    <title>Stencil</title>
    <g>
        <path d="M104.577176,75.0182115 L75.6880788,106.666778 L22.5325568,106.666778 L51.1339733,75.0182115 L104.577176,75.0182115 Z M199.505808,24.7363458 C218.983161,24.7363458 225.708502,37.1313453 226.192769,46.6287952 L209.190618,46.6287952 C208.814084,42.5507643 205.693548,38.8483605 199.398074,38.8483605 C193.695135,38.8483605 190.466865,41.58495 190.466865,45.1799937 C190.466865,56.0725917 226.461569,45.1800471 226.461569,71.7942081 C226.461569,83.4379536 216.507959,92.6134298 198.913807,92.6134298 C178.468453,92.5600964 171.527645,82.1504856 170.666844,70.0235396 L188.529796,70.0235396 C188.798597,74.3696775 192.026867,78.4480817 199.344208,78.4480817 C206.070081,78.4480817 209.513285,76.0870126 209.513285,72.4918088 C209.513285,61.5995308 173.410847,71.8480748 173.410847,46.1458614 C173.410847,34.3947558 183.472191,24.7363458 199.505808,24.7363458 Z M429.680448,24.7363458 C449.910869,24.7363458 459.487945,38.9557206 460.72528,50.0092254 L442.593528,50.0092254 C441.24846,44.4287929 436.029254,40.3508154 429.572714,40.3508154 C420.157238,40.3508154 414.669232,47.7556231 414.669232,58.6480611 C414.669232,69.5408724 420.157238,76.9456802 429.572714,76.9456802 C436.029254,76.9456802 441.24846,72.8672759 442.593528,67.2870034 L460.72528,67.2870034 C459.487945,78.2870149 449.910869,92.5600964 429.680448,92.5600964 C410.795095,92.5600964 397.021214,77.9648812 397.021214,58.6480611 C397.021214,39.3312943 410.795095,24.7363458 429.680448,24.7363458 Z M292.156571,24.682639 C311.418458,24.682639 324.439271,39.2775876 324.439271,58.4869943 C324.439271,61.3307306 324.170471,63.6917997 324.170471,63.6917997 L276.983755,63.6917997 C278.221623,72.599009 283.924562,77.4283473 292.748572,77.4283473 C298.07551,77.4283473 303.186449,75.0672782 305.285118,70.3456733 L323.040337,70.3456733 C319.166732,83.4918203 307.27552,92.5062297 292.264304,92.5062297 C273.002418,92.5062297 259.49787,78.394215 259.49787,58.4869943 C259.49787,39.2775876 272.894684,24.682639 292.156571,24.682639 Z M249.543727,11.1072649 L249.543727,26.1851473 L262.510673,26.1851473 L262.510673,40.5118289 L249.543727,40.5118289 L249.543727,91.0576949 L231.896242,91.0576949 L231.896242,11.1072649 L249.543727,11.1072649 Z M366.568382,24.7363458 C382.225465,24.7363458 390.51134,35.1460099 390.51134,50.599466 L390.51134,91.0576949 L372.863322,91.0576949 L372.863322,52.5311481 C372.863322,44.9653802 369.635052,39.7605748 361.833444,39.7605748 C353.278768,39.7605748 348.54383,45.2337005 348.54383,53.8725895 L348.54383,91.0038281 L330.896345,91.0038281 L330.896345,26.1850939 L347.198762,26.1850939 L347.198762,34.1264889 C350.158231,28.5460564 356.883572,24.7363458 366.568382,24.7363458 Z M484.936505,26.1850406 L484.936505,91.0576949 L467.288487,91.0576949 L467.288487,26.1850406 L484.936505,26.1850406 Z M512,4.07796691 L512,91.0571615 L494.351982,91.0571615 L494.351982,4.07796691 L512,4.07796691 Z M138.666811,37.5091591 L109.793181,69.1574054 L0,69.1574054 L28.8737367,37.5091591 L138.666811,37.5091591 Z M291.941637,38.8483071 C283.924562,38.8483071 278.70589,43.6775388 277.199222,51.0823465 L306.73792,51.0823465 C305.500052,43.7848456 300.173646,38.8483071 291.941637,38.8483071 Z M116.132921,2.13162821e-14 L87.3771577,31.6484063 L34.0885688,31.6484063 L62.8869988,2.13162821e-14 L116.132921,2.13162821e-14 Z M476.058629,0 C482.246369,0 486.711974,4.45360464 486.711974,10.6242777 C486.711974,16.7948975 482.246369,21.1411954 476.058629,21.1411954 C469.924756,21.1411954 465.405285,16.8486042 465.405285,10.6242777 C465.405285,4.45360464 469.871423,0 476.058629,0 Z" fill="#000000"></path>
    </g>
</svg>

<svg width="512" height="107" xmlns="http://www.w3.org/2000/svg" preserveAspectRatio="xMidYMid">
	<path d="m104.577 75.018-28.889 31.649H22.533l28.601-31.649h53.443Zm94.929-50.282c19.477 0 26.203 12.395 26.687 21.893H209.19c-.377-4.078-3.497-7.78-9.793-7.78-5.703 0-8.931 2.736-8.931 6.331 0 10.893 35.995 0 35.995 26.614 0 11.644-9.954 20.82-27.548 20.82-20.446-.054-27.386-10.464-28.247-22.59h17.863c.269 4.346 3.497 8.424 10.814 8.424 6.726 0 10.17-2.361 10.17-5.956 0-10.892-36.103-.644-36.103-26.346 0-11.751 10.061-21.41 26.095-21.41Zm230.174 0c20.23 0 29.808 14.22 31.045 25.273h-18.131c-1.346-5.58-6.565-9.658-13.021-9.658-9.416 0-14.904 7.405-14.904 18.297 0 10.893 5.488 18.298 14.904 18.298 6.456 0 11.675-4.079 13.02-9.659h18.132c-1.237 11-10.814 25.273-31.045 25.273-18.885 0-32.659-14.595-32.659-33.912s13.774-33.912 32.66-33.912Zm-137.523-.053c19.261 0 32.282 14.595 32.282 33.804 0 2.844-.269 5.205-.269 5.205h-47.186c1.238 8.907 6.94 13.736 15.765 13.736 5.327 0 10.437-2.36 12.536-7.082h17.755c-3.873 13.146-15.764 22.16-30.776 22.16-19.262 0-32.766-14.112-32.766-34.019 0-19.21 13.397-33.804 32.659-33.804Zm-42.613-13.576v15.078h12.967v14.327h-12.967v50.546h-17.648v-79.95h17.648Zm117.024 13.63c15.657 0 23.943 10.409 23.943 25.862v40.459h-17.648V52.53c0-7.566-3.228-12.77-11.03-12.77-8.554 0-13.29 5.473-13.29 14.112v37.13h-17.647V26.186H347.2v7.941c2.96-5.58 9.685-9.39 19.37-9.39Zm118.369 1.448v64.873h-17.649V26.185h17.649ZM512 4.078v86.98h-17.648V4.077H512ZM138.667 37.509l-28.874 31.648H0L28.874 37.51h109.793Zm153.275 1.34c-8.017 0-13.236 4.829-14.743 12.233h29.539c-1.238-7.297-6.564-12.234-14.796-12.234ZM116.132 0 87.378 31.648H34.09L62.887 0h53.246ZM476.06 0c6.187 0 10.653 4.454 10.653 10.624 0 6.17-4.466 10.517-10.653 10.517-6.134 0-10.654-4.292-10.654-10.517C465.405 4.454 469.871 0 476.06 0Z"/>
</svg>
